src/app/assets/svg/user.svg

<?xml version="1.0" encoding="UTF-8"?>
<svg width="24px" height="24px" viewBox="0 0 24 24" version="1.1" xmlns="http://www.w3.org/2000/svg" xmlns:xlink="http://www.w3.org/1999/xlink">
    <!-- Generator: Sketch 55.2 (78181) - https://sketchapp.com -->
    <title>Icon / 24px / user-astronaut-light</title>
    <desc>Created with Sketch.</desc>
    <g id="Icon-/-24px-/-user-astronaut-light" stroke="none" stroke-width="1" fill-rule="evenodd">
        <path d="M14.5,6.99999997 L9.49999997,6.99999997 C8.12109373,6.99999997 6.99999997,8.12109373 6.99999997,9.49999997 L6.99999997,10.125 C6.99999997,12.5390625 8.96093748,14.5 11.375,14.5 L12.625,14.5 C15.0390625,14.5 17,12.5390625 17,10.125 L17,9.49999997 C17,8.12109373 15.8789063,6.99999997 14.5,6.99999997 Z M15.75,10.125 C15.75,11.8476562 14.3476563,13.25 12.625,13.25 L11.375,13.25 C9.65234374,13.25 8.24999998,11.8476562 8.24999998,10.125 L8.24999998,9.49999999 C8.24999998,8.81249998 8.80859373,8.24999998 9.49999999,8.24999998 L14.5,8.24999998 C15.1914063,8.24999998 15.75,8.81249998 15.75,9.49999999 L15.75,10.125 Z M15.125,17.625 L8.87499998,17.625 C7.83984373,17.625 6.99999997,18.4648438 6.99999997,19.5 L6.99999997,21.6875 C6.99999997,21.859375 7.14062498,22.0000001 7.31249998,22.0000001 L7.93749998,22.0000001 C8.10937498,22.0000001 8.24999998,21.859375 8.24999998,21.6875 L8.24999998,19.5 C8.24999998,19.15625 8.53124998,18.875 8.87499998,18.875 L15.125,18.875 C15.46875,18.875 15.75,19.15625 15.75,19.5 L15.75,21.6875 C15.75,21.859375 15.890625,22.0000001 16.0625,22.0000001 L16.6875,22.0000001 C16.859375,22.0000001 17,21.859375 17,21.6875 L17,19.5 C17,18.4648438 16.1601563,17.625 15.125,17.625 Z M10.125,19.5 C9.78124999,19.5 9.49999999,19.78125 9.49999999,20.125 L9.49999999,21.6875 C9.49999999,21.859375 9.64062499,22 9.81249999,22 L10.4375,22 C10.609375,22 10.75,21.859375 10.75,21.6875 L10.75,20.125 C10.75,19.78125 10.46875,19.5 10.125,19.5 Z M17.28125,14.8242188 C18.0742188,14.0390625 18.6835938,13.0742188 19.0664063,11.9999999 L19.5,11.9999999 C19.84375,11.9999999 20.125,11.71875 20.125,11.375 L20.125,7.62499998 C20.125,7.28124998 19.84375,6.99999995 19.5,6.99999995 L19.0625,6.99999995 C18.0351563,4.08984371 15.265625,1.99999995 12,1.99999995 C8.73437498,1.99999995 5.96484372,4.08984371 4.93749996,6.99999995 L4.49999996,6.99999995 C4.15624996,6.99999995 3.87499996,7.28124998 3.87499996,7.62499998 L3.87499996,11.375 C3.87499996,11.71875 4.15624996,11.9999999 4.49999996,11.9999999 L4.93749996,11.9999999 C5.31640622,13.0742188 5.92968747,14.0390625 6.72265622,14.8242188 C4.69921871,15.5546875 3.24999996,17.4765625 3.24999996,19.75 L3.24999996,21.6875 C3.24999996,21.859375 3.39062496,21.9999999 3.56249996,21.9999999 L4.18749996,21.9999999 C4.35937496,21.9999999 4.49999996,21.859375 4.49999996,21.6875 L4.49999996,19.75 C4.49999996,17.734375 6.00390622,16.078125 7.94921873,15.8046875 C9.11718749,16.5585938 10.5078125,16.9999999 12,16.9999999 C13.4921875,16.9999999 14.8828125,16.5585938 16.0507813,15.8046875 C17.9960938,16.0742188 19.5,17.7304688 19.5,19.75 L19.5,21.6875 C19.5,21.859375 19.640625,21.9999999 19.8125,21.9999999 L20.4375,21.9999999 C20.609375,21.9999999 20.75,21.859375 20.75,21.6875 L20.75,19.75 C20.75,17.4765625 19.3007813,15.5546875 17.28125,14.8242188 Z M12,15.75 C8.55468748,15.75 5.74999997,12.9453125 5.74999997,9.49999999 C5.74999997,6.05468747 8.55468748,3.24999996 12,3.24999996 C15.4453125,3.24999996 18.25,6.05468747 18.25,9.49999999 C18.25,12.9453125 15.4453125,15.75 12,15.75 Z" id="user-astronaut-light"></path>
    </g>
</svg>

<svg xmlns="http://www.w3.org/2000/svg" width="24" height="24"><defs/><path fill-rule="evenodd" d="M14.5 7h-5A2.502 2.502 0 007 9.5v.625a4.378 4.378 0 004.375 4.375h1.25A4.378 4.378 0 0017 10.125V9.5C17 8.121 15.879 7 14.5 7zm1.25 3.125a3.13 3.13 0 01-3.125 3.125h-1.25a3.13 3.13 0 01-3.125-3.125V9.5c0-.688.559-1.25 1.25-1.25h5c.691 0 1.25.562 1.25 1.25v.625zm-.625 7.5h-6.25C7.84 17.625 7 18.465 7 19.5v2.188c0 .171.14.312.312.312h.625c.172 0 .313-.14.313-.313V19.5c0-.344.281-.625.625-.625h6.25c.344 0 .625.281.625.625v2.188c0 .171.14.312.313.312h.625c.171 0 .312-.14.312-.313V19.5c0-1.035-.84-1.875-1.875-1.875zm-5 1.875a.627.627 0 00-.625.625v1.563c0 .171.14.312.312.312h.626c.171 0 .312-.14.312-.313v-1.562a.627.627 0 00-.625-.625zm7.156-4.676A7.519 7.519 0 0019.066 12h.434a.627.627 0 00.625-.625v-3.75A.627.627 0 0019.5 7h-.438A7.49 7.49 0 0012 2a7.49 7.49 0 00-7.063 5H4.5a.627.627 0 00-.625.625v3.75c0 .344.281.625.625.625h.437a7.47 7.47 0 001.786 2.824A5.238 5.238 0 003.25 19.75v1.938c0 .171.14.312.312.312h.625c.172 0 .313-.14.313-.313V19.75c0-2.016 1.504-3.672 3.45-3.945A7.448 7.448 0 0012 17a7.448 7.448 0 004.05-1.195c1.946.27 3.45 1.925 3.45 3.945v1.938c0 .171.14.312.313.312h.625c.171 0 .312-.14.312-.313V19.75a5.24 5.24 0 00-3.469-4.926zM12 15.75A6.258 6.258 0 015.75 9.5 6.258 6.258 0 0112 3.25a6.258 6.258 0 016.25 6.25A6.258 6.258 0 0112 15.75z"/></svg>
